X:14
M:6/8
L:1/8
K:D
|: (a2f) (g2e) | (f2d) "tr"c3 | B2c d2e | f2g fdB | aaf gge | ffd c3 | A2B c2d | e2a (ec)A :|

